pieces/chess7/bb.svg

<svg width="68" height="68" viewBox="0 0 68 68" fill="none" xmlns="http://www.w3.org/2000/svg">
<path d="M27.984 55.472C26.1493 55.4293 24.6347 55.408 23.44 55.408C22.2453 55.3653 21.6053 55.28 21.52 55.152C20.9653 54.64 20.6667 54.0213 20.624 53.296C20.5813 52.5707 20.8373 51.9733 21.392 51.504C21.4347 51.4187 21.7973 50.9067 22.48 49.968C23.1627 48.9867 23.9733 47.792 24.912 46.384C23.2907 44.336 21.7547 42.3307 20.304 40.368C18.8533 38.3627 17.9787 37.1893 17.68 36.848C16.7413 36.0373 16.272 35.0347 16.272 33.84C16.272 32.6027 16.7413 31.5147 17.68 30.576C17.936 30.32 18.704 29.3387 19.984 27.632C21.3067 25.9253 22.7147 24.0693 24.208 22.064C25.744 20.0587 27.152 18.2027 28.432 16.496C29.7547 14.7467 30.5013 13.7867 30.672 13.616C30.8427 13.4453 30.9707 13.296 31.056 13.168C30.5867 12.656 30.096 12.1653 29.584 11.696C29.1147 11.2267 28.8373 10.9067 28.752 10.736C27.3867 9.54133 27.3867 8.34667 28.752 7.152C28.88 6.93867 29.456 6.34133 30.48 5.36C31.5467 4.37867 32.1653 3.76 32.336 3.504C33.488 2.39467 34.5973 2.39467 35.664 3.504L37.52 5.36C38.5013 6.34133 39.12 6.93867 39.376 7.152C40.5707 8.34667 40.5707 9.54133 39.376 10.736C39.2053 10.9067 38.864 11.2267 38.352 11.696C37.84 12.1653 37.3707 12.656 36.944 13.168C36.9867 13.168 37.0933 13.232 37.264 13.36C37.5627 13.7013 38.352 14.7467 39.632 16.496C40.912 18.2027 42.2773 20.0587 43.728 22.064C45.2213 24.0693 46.5867 25.9253 47.824 27.632C49.104 29.3387 49.872 30.32 50.128 30.576C51.024 31.5147 51.472 32.6027 51.472 33.84C51.472 35.0347 51.024 36.0373 50.128 36.848C49.8293 37.1893 48.976 38.32 47.568 40.24C46.2027 42.1173 44.752 44.08 43.216 46.128C44.2827 47.536 45.1787 48.7733 45.904 49.84C46.672 50.864 47.12 51.4187 47.248 51.504C48.4 52.6987 48.336 53.9147 47.056 55.152C46.9707 55.28 46.2667 55.3653 44.944 55.408C43.664 55.408 42.064 55.4293 40.144 55.472C40.016 56.4107 39.9733 56.88 40.016 56.88C40.2293 57.0933 40.9547 57.2 42.192 57.2C43.4293 57.1573 44.7947 57.1147 46.288 57.072C47.7813 57.0293 49.2107 57.008 50.576 57.008C51.984 56.9653 52.9653 57.0293 53.52 57.2C54.928 57.6693 55.9093 58.7573 56.464 60.464C57.0187 62.128 57.488 63.7493 57.872 65.328H40.784C39.888 65.328 39.0347 65.3067 38.224 65.264C37.456 65.1787 36.6667 64.944 35.856 64.56C35.088 64.176 34.5973 63.8987 34.384 63.728C34.1707 63.5147 34.0427 63.28 34 63.024C34 63.28 33.9147 63.5147 33.744 63.728C33.5733 63.8987 33.104 64.176 32.336 64.56C31.44 64.944 30.5867 65.1787 29.776 65.264C28.9653 65.3067 28.176 65.328 27.408 65.328H10.128C10.5973 63.7493 11.152 62.128 11.792 60.464C12.4747 58.7573 13.52 57.6693 14.928 57.2C15.44 57.0293 16.3573 56.9653 17.68 57.008C19.0453 57.008 20.432 57.0293 21.84 57.072C23.2907 57.1147 24.592 57.1573 25.744 57.2C26.9387 57.2 27.6427 57.0933 27.856 56.88C28.0693 56.752 28.1333 56.624 28.048 56.496C28.0053 56.3253 27.984 55.984 27.984 55.472V55.472ZM35.536 35.056H39.056V32.112H35.536V27.824H32.592V32.112H29.072V35.056H32.592V46.128H35.536V35.056ZM34 5.616C33.8293 5.872 33.296 6.448 32.4 7.344C31.5467 8.24 31.056 8.752 30.928 8.88C31.056 9.136 31.5467 9.712 32.4 10.608C33.296 11.4613 33.8293 11.952 34 12.08C34.128 11.952 34.64 11.4613 35.536 10.608L37.264 8.88C37.008 8.752 36.432 8.24 35.536 7.344C34.64 6.448 34.128 5.872 34 5.616ZM31.056 55.344H36.944L37.52 52.848H30.48L31.056 55.344Z" fill="black"/>
<path fill-rule="evenodd" clip-rule="evenodd" d="M30.886 54.443C30.481 52.685 30.216 52.821 34.06 52.821H37.446L37.33 53.401C37.266 53.721 37.13 54.294 37.027 54.674L36.841 55.366H31.1L30.886 54.443ZM32.673 40.548V35.003H29.22V32.093H32.674V27.912H35.402V32.093H39.038V34.989L37.265 35.041L35.492 35.093L35.444 40.593L35.396 46.093H32.673V40.548V40.548ZM32.416 10.462L31 9.005L31.912 7.958C32.413 7.383 33.097 6.664 33.431 6.361L34.038 5.811L35.609 7.411L37.181 9.011L35.641 10.416C34.793 11.188 34.041 11.843 33.968 11.87C33.895 11.897 33.198 11.263 32.418 10.462H32.416Z" fill="white"/>
<path d="M27.984 55.472C26.1493 55.4293 24.6347 55.408 23.44 55.408C22.2453 55.3653 21.6053 55.28 21.52 55.152C20.9653 54.64 20.6667 54.0213 20.624 53.296C20.5813 52.5707 20.8373 51.9733 21.392 51.504C21.4347 51.4187 21.7973 50.9067 22.48 49.968C23.1627 48.9867 23.9733 47.792 24.912 46.384C23.2907 44.336 21.7547 42.3307 20.304 40.368C18.8533 38.3627 17.9787 37.1893 17.68 36.848C16.7413 36.0373 16.272 35.0347 16.272 33.84C16.272 32.6027 16.7413 31.5147 17.68 30.576C17.936 30.32 18.704 29.3387 19.984 27.632C21.3067 25.9253 22.7147 24.0693 24.208 22.064C25.744 20.0587 27.152 18.2027 28.432 16.496C29.7547 14.7467 30.5013 13.7867 30.672 13.616C30.8427 13.4453 30.9707 13.296 31.056 13.168C30.5867 12.656 30.096 12.1653 29.584 11.696C29.1147 11.2267 28.8373 10.9067 28.752 10.736C27.3867 9.54133 27.3867 8.34667 28.752 7.152C28.88 6.93867 29.456 6.34133 30.48 5.36C31.5467 4.37867 32.1653 3.76 32.336 3.504C33.488 2.39467 34.5973 2.39467 35.664 3.504L37.52 5.36C38.5013 6.34133 39.12 6.93867 39.376 7.152C40.5707 8.34667 40.5707 9.54133 39.376 10.736C39.2053 10.9067 38.864 11.2267 38.352 11.696C37.84 12.1653 37.3707 12.656 36.944 13.168C36.9867 13.168 37.0933 13.232 37.264 13.36C37.5627 13.7013 38.352 14.7467 39.632 16.496C40.912 18.2027 42.2773 20.0587 43.728 22.064C45.2213 24.0693 46.5867 25.9253 47.824 27.632C49.104 29.3387 49.872 30.32 50.128 30.576C51.024 31.5147 51.472 32.6027 51.472 33.84C51.472 35.0347 51.024 36.0373 50.128 36.848C49.8293 37.1893 48.976 38.32 47.568 40.24C46.2027 42.1173 44.752 44.08 43.216 46.128C44.2827 47.536 45.1787 48.7733 45.904 49.84C46.672 50.864 47.12 51.4187 47.248 51.504C48.4 52.6987 48.336 53.9147 47.056 55.152C46.9707 55.28 46.2667 55.3653 44.944 55.408C43.664 55.408 42.064 55.4293 40.144 55.472C40.016 56.4107 39.9733 56.88 40.016 56.88C40.2293 57.0933 40.9547 57.2 42.192 57.2C43.4293 57.1573 44.7947 57.1147 46.288 57.072C47.7813 57.0293 49.2107 57.008 50.576 57.008C51.984 56.9653 52.9653 57.0293 53.52 57.2C54.928 57.6693 55.9093 58.7573 56.464 60.464C57.0187 62.128 57.488 63.7493 57.872 65.328H40.784C39.888 65.328 39.0347 65.3067 38.224 65.264C37.456 65.1787 36.6667 64.944 35.856 64.56C35.088 64.176 34.5973 63.8987 34.384 63.728C34.1707 63.5147 34.0427 63.28 34 63.024C34 63.28 33.9147 63.5147 33.744 63.728C33.5733 63.8987 33.104 64.176 32.336 64.56C31.44 64.944 30.5867 65.1787 29.776 65.264C28.9653 65.3067 28.176 65.328 27.408 65.328H10.128C10.5973 63.7493 11.152 62.128 11.792 60.464C12.4747 58.7573 13.52 57.6693 14.928 57.2C15.44 57.0293 16.3573 56.9653 17.68 57.008C19.0453 57.008 20.432 57.0293 21.84 57.072C23.2907 57.1147 24.592 57.1573 25.744 57.2C26.9387 57.2 27.6427 57.0933 27.856 56.88C28.0693 56.752 28.1333 56.624 28.048 56.496C28.0053 56.3253 27.984 55.984 27.984 55.472Z" fill="black"/>
<path fill-rule="evenodd" clip-rule="evenodd" d="M30.886 54.443C30.481 52.685 30.216 52.821 34.06 52.821H37.446L37.33 53.401C37.266 53.721 37.13 54.294 37.027 54.674L36.841 55.366H31.1L30.886 54.443ZM32.673 35.003H29.22V32.093H32.674V27.912H35.402V32.093H39.038V34.989L35.492 35.093L35.396 46.093H32.673V35.003ZM32.416 10.462L31 9.005L31.912 7.958C32.413 7.383 33.097 6.664 33.431 6.361L34.038 5.811L37.181 9.011L35.641 10.416C34.793 11.188 34.041 11.843 33.968 11.87C33.895 11.897 33.198 11.263 32.418 10.462H32.416Z" fill="white"/>
</svg>

<svg height="68" width="68" xmlns="http://www.w3.org/2000/svg"><path d="M27.984 55.472q-2.752-.064-4.544-.064-1.792-.064-1.92-.256-.832-.768-.896-1.856-.064-1.088.768-1.792.064-.128 1.088-1.536 1.024-1.472 2.432-3.584-2.432-3.072-4.608-6.016-2.176-3.008-2.624-3.52-1.408-1.216-1.408-3.008 0-1.856 1.408-3.264.384-.384 2.304-2.944 1.984-2.56 4.224-5.568 2.304-3.008 4.224-5.568 1.984-2.624 2.24-2.88.256-.256.384-.448-.704-.768-1.472-1.472-.704-.704-.832-.96-2.048-1.792 0-3.584.192-.32 1.728-1.792 1.6-1.472 1.856-1.856 1.728-1.664 3.328 0L37.52 5.36q1.472 1.472 1.856 1.792 1.792 1.792 0 3.584-.256.256-1.024.96t-1.408 1.472q.064 0 .32.192.448.512 2.368 3.136 1.92 2.56 4.096 5.568 2.24 3.008 4.096 5.568 1.92 2.56 2.304 2.944 1.344 1.408 1.344 3.264 0 1.792-1.344 3.008-.448.512-2.56 3.392-2.048 2.816-4.352 5.888 1.6 2.112 2.688 3.712 1.152 1.536 1.344 1.664 1.728 1.792-.192 3.648-.128.192-2.112.256-1.92 0-4.8.064-.192 1.408-.128 1.408.32.32 2.176.32 1.856-.064 4.096-.128t4.288-.064q2.112-.064 2.944.192 2.112.704 2.944 3.264.832 2.496 1.408 4.864H40.784q-1.344 0-2.56-.064-1.152-.128-2.368-.704-1.152-.576-1.472-.832-.32-.32-.384-.704 0 .384-.256.704-.256.256-1.408.832-1.344.576-2.56.704-1.216.064-2.368.064h-17.28q.704-2.368 1.664-4.864 1.024-2.56 3.136-3.264.768-.256 2.752-.192 2.048 0 4.16.064 2.176.064 3.904.128 1.792 0 2.112-.32.32-.192.192-.384-.064-.256-.064-1.024zm7.552-20.416h3.52v-2.944h-3.52v-4.288h-2.944v4.288h-3.52v2.944h3.52v11.072h2.944zM34 5.616q-.256.384-1.6 1.728-1.28 1.344-1.472 1.536.192.384 1.472 1.728 1.344 1.28 1.6 1.472.192-.192 1.536-1.472l1.728-1.728q-.384-.192-1.728-1.536Q34.192 6 34 5.616zm-2.944 49.728h5.888l.576-2.496h-7.04z"/><path d="M30.886 54.443c-.405-1.758-.67-1.622 3.174-1.622h3.386l-.116.58c-.064.32-.2.893-.303 1.273l-.186.692H31.1zm1.787-13.895v-5.545H29.22v-2.91h3.454v-4.181h2.728v4.181h3.636v2.896l-1.773.052-1.773.052-.048 5.5-.048 5.5h-2.723v-5.545zm-.257-30.086L31 9.005l.912-1.047c.501-.575 1.185-1.294 1.519-1.597l.607-.55 1.571 1.6 1.572 1.6-1.54 1.405c-.848.772-1.6 1.427-1.673 1.454-.073.027-.77-.607-1.55-1.408z" fill="#fff" fill-rule="evenodd"/><path d="M27.984 55.472q-2.752-.064-4.544-.064-1.792-.064-1.92-.256-.832-.768-.896-1.856-.064-1.088.768-1.792.064-.128 1.088-1.536 1.024-1.472 2.432-3.584-2.432-3.072-4.608-6.016-2.176-3.008-2.624-3.52-1.408-1.216-1.408-3.008 0-1.856 1.408-3.264.384-.384 2.304-2.944 1.984-2.56 4.224-5.568 2.304-3.008 4.224-5.568 1.984-2.624 2.24-2.88.256-.256.384-.448-.704-.768-1.472-1.472-.704-.704-.832-.96-2.048-1.792 0-3.584.192-.32 1.728-1.792 1.6-1.472 1.856-1.856 1.728-1.664 3.328 0L37.52 5.36q1.472 1.472 1.856 1.792 1.792 1.792 0 3.584-.256.256-1.024.96t-1.408 1.472q.064 0 .32.192.448.512 2.368 3.136 1.92 2.56 4.096 5.568 2.24 3.008 4.096 5.568 1.92 2.56 2.304 2.944 1.344 1.408 1.344 3.264 0 1.792-1.344 3.008-.448.512-2.56 3.392-2.048 2.816-4.352 5.888 1.6 2.112 2.688 3.712 1.152 1.536 1.344 1.664 1.728 1.792-.192 3.648-.128.192-2.112.256-1.92 0-4.8.064-.192 1.408-.128 1.408.32.32 2.176.32 1.856-.064 4.096-.128t4.288-.064q2.112-.064 2.944.192 2.112.704 2.944 3.264.832 2.496 1.408 4.864H40.784q-1.344 0-2.56-.064-1.152-.128-2.368-.704-1.152-.576-1.472-.832-.32-.32-.384-.704 0 .384-.256.704-.256.256-1.408.832-1.344.576-2.56.704-1.216.064-2.368.064h-17.28q.704-2.368 1.664-4.864 1.024-2.56 3.136-3.264.768-.256 2.752-.192 2.048 0 4.16.064 2.176.064 3.904.128 1.792 0 2.112-.32.32-.192.192-.384-.064-.256-.064-1.024zm7.552-20.416h3.52v-2.944h-3.52v-4.288h-2.944v4.288h-3.52v2.944h3.52v11.072h2.944zM34 5.616q-.256.384-1.6 1.728-1.28 1.344-1.472 1.536.192.384 1.472 1.728 1.344 1.28 1.6 1.472.192-.192 1.536-1.472l1.728-1.728q-.384-.192-1.728-1.536Q34.192 6 34 5.616zm-2.944 49.728h5.888l.576-2.496h-7.04z"/><path d="M30.886 54.443c-.405-1.758-.67-1.622 3.174-1.622h3.386l-.116.58c-.064.32-.2.893-.303 1.273l-.186.692H31.1zm1.787-13.895v-5.545H29.22v-2.91h3.454v-4.181h2.728v4.181h3.636v2.896l-1.773.052-1.773.052-.048 5.5-.048 5.5h-2.723v-5.545zm-.257-30.086L31 9.005l.912-1.047c.501-.575 1.185-1.294 1.519-1.597l.607-.55 1.571 1.6 1.572 1.6-1.54 1.405c-.848.772-1.6 1.427-1.673 1.454-.073.027-.77-.607-1.55-1.408z" fill="#fff" fill-rule="evenodd"/></svg>
